X:43
T:Reel 43
M:4/4
K:Gmaj
L:1/8
f|g2dc BcdB|ABcd eAAf|g2dc BcdB|cedc BGGf|g2dc BcdB|ABcd edef|gfgd egdB|cedc BGG|c|Bdgd Bded|Bdgd BAAf|gdgd gdec|BcAc BGGd|BGDG Bdgd|cBAB ceef|gfga bgaf|gedc BGG|
